X:1
T:Old 104th, 10.10.11.11
T:Thomas Ravenscroft, 1621
T:Old 104th, 10.10.11.11
T:Public Domain
C:Thomas Ravenscroft, 1621
Z:Public Domain
%%score ( 1 2 ) ( 3 4 )
L:1/8
M:3/4
K:F
V:1 treble 
V:2 treble 
V:3 bass 
V:4 bass 
V:1
 [A,D]2 | [DF]2 [A,E]2 D2 | [^CA]4 [DF]2 | G2 z E [FA]2 | [EG]4 [EG]2 | [FA]2 [Ec]2 [G=B]2 | %6
 [Gc]4 F2 | [FA]2 [FG]2 [EG]2 | F4 [CF]2 | [DF]2 [DF]2 [EG]2 | [FA]2 F2 z D x | %11
 [_EG]2 [DB]2 [FA]2 | [EG]4 [Fd]2 | [Fc]2 F2 [EB]2 | [FA]2 [EG]2 [DF]2 | [DG]2 [DA]2 [^CE]2 | D6 |] %17
V:2
 x2 | x4 D2 | x6 | D3 B2 x | x6 | x6 | x4 F2 | x6 | F4 x2 | x6 | x2 C3 F2 | x6 | x6 | x6 | x6 | %15
 x6 | D6 |] %17
V:3
 [D,F,]2 | [D,A,]2 [C,A,]2 [B,,D,]2 | [A,,E,]4 [D,F,]2 | [B,,B,]2 [G,,B,]2 (A,,B,,) | %4
 [C,C]4 [C,C]2 | [F,C]2 A,2 (G,F,) | [E,C]4 [D,A,]2 | [A,,C]2 [B,,D]2 [C,C]2 | [F,,A,]4 [F,A,]2 | %9
 [D,A,]2 (B,,A,,) [G,,B,]2 | [F,,C]2 [F,A,]2 [F,A,]2 x | [_E,B,]2 [B,,B,]2 [F,C]2 | [C,C]4 B,2 | %13
 [A,C]2 [B,D]2 [G,B,]2 | F,2 z B, [D,A,]2 | [B,,B,]2 (F,,G,,) (A,G,) | [D,F,]6 |] %17
V:4
 x2 | x6 | x6 | x4 C2 | x6 | x2 A,2 D2 | x6 | x6 | x6 | x2 B,2 x2 | x7 | x6 | x4 B,2 | x6 | %14
 C3 C,2 x | x2 A,2 A,,2 | x6 |] %17

